SF_Symbols/phone.and.waveform.svg

<?xml version="1.0" encoding="UTF-8"?>
<svg xmlns="http://www.w3.org/2000/svg" xmlns:xlink="http://www.w3.org/1999/xlink" width="24" height="24" viewBox="0 0 24 24" version="1.1">
<g id="surface1">
<path style=" stroke:none;fill-rule:nonzero;fill:rgb(100%,100%,100%);fill-opacity:1;" d="M 16.542969 22.621094 C 17.507812 22.621094 18.328125 22.480469 19.003906 22.203125 C 19.679688 21.929688 20.296875 21.476562 20.855469 20.84375 C 20.902344 20.800781 20.941406 20.753906 20.976562 20.703125 C 21.023438 20.65625 21.066406 20.613281 21.109375 20.570312 C 21.441406 20.203125 21.683594 19.839844 21.839844 19.476562 C 22 19.109375 22.082031 18.753906 22.082031 18.40625 C 22.082031 18.011719 21.964844 17.628906 21.726562 17.261719 C 21.492188 16.886719 21.128906 16.53125 20.636719 16.191406 L 17.425781 13.964844 C 16.933594 13.625 16.410156 13.453125 15.859375 13.445312 C 15.316406 13.4375 14.8125 13.660156 14.347656 14.117188 L 13.5 14.96875 C 13.375 15.09375 13.253906 15.160156 13.136719 15.175781 C 13.027344 15.191406 12.90625 15.15625 12.773438 15.078125 C 12.582031 14.953125 12.332031 14.765625 12.023438 14.515625 C 11.71875 14.265625 11.40625 13.992188 11.074219 13.699219 C 10.742188 13.398438 10.441406 13.109375 10.167969 12.839844 C 9.882812 12.550781 9.601562 12.261719 9.332031 11.96875 C 9.058594 11.671875 8.8125 11.390625 8.59375 11.117188 C 8.371094 10.839844 8.1875 10.582031 8.039062 10.34375 C 7.96875 10.21875 7.9375 10.101562 7.953125 9.992188 C 7.96875 9.875 8.035156 9.753906 8.160156 9.628906 L 9 8.78125 C 9.464844 8.316406 9.691406 7.8125 9.683594 7.269531 C 9.675781 6.71875 9.503906 6.195312 9.164062 5.703125 L 6.925781 2.492188 C 6.589844 2 6.234375 1.640625 5.867188 1.410156 C 5.5 1.175781 5.117188 1.054688 4.71875 1.046875 C 4.015625 1.03125 3.292969 1.355469 2.558594 2.019531 C 2.507812 2.0625 2.460938 2.105469 2.414062 2.152344 C 2.371094 2.1875 2.324219 2.222656 2.273438 2.261719 C 1.648438 2.820312 1.195312 3.4375 0.914062 4.113281 C 0.644531 4.789062 0.507812 5.605469 0.507812 6.5625 C 0.507812 7.613281 0.71875 8.726562 1.136719 9.90625 C 1.5625 11.082031 2.183594 12.28125 3 13.511719 C 3.824219 14.730469 4.828125 15.933594 6.011719 17.117188 C 7.1875 18.292969 8.386719 19.289062 9.605469 20.105469 C 10.828125 20.929688 12.027344 21.554688 13.203125 21.980469 C 14.378906 22.40625 15.492188 22.621094 16.542969 22.621094 Z M 16.554688 20.921875 C 15.613281 20.945312 14.605469 20.738281 13.53125 20.304688 C 12.46875 19.871094 11.394531 19.28125 10.3125 18.53125 C 9.238281 17.773438 8.226562 16.917969 7.28125 15.96875 C 6.324219 15.015625 5.457031 13.988281 4.675781 12.894531 C 3.90625 11.789062 3.292969 10.695312 2.84375 9.605469 C 2.398438 8.511719 2.179688 7.496094 2.195312 6.5625 C 2.210938 5.953125 2.324219 5.394531 2.535156 4.886719 C 2.75 4.371094 3.074219 3.925781 3.507812 3.550781 C 3.542969 3.515625 3.578125 3.484375 3.605469 3.464844 C 3.644531 3.433594 3.679688 3.40625 3.71875 3.375 C 3.878906 3.234375 4.042969 3.128906 4.214844 3.054688 C 4.390625 2.972656 4.554688 2.933594 4.710938 2.933594 C 5.0625 2.933594 5.339844 3.085938 5.535156 3.386719 L 7.675781 6.59375 C 7.792969 6.773438 7.847656 6.953125 7.84375 7.136719 C 7.84375 7.320312 7.757812 7.496094 7.589844 7.664062 L 6.617188 8.636719 C 6.234375 9.011719 6.042969 9.417969 6.042969 9.859375 C 6.042969 10.292969 6.183594 10.695312 6.464844 11.0625 C 6.78125 11.488281 7.179688 11.976562 7.664062 12.53125 C 8.152344 13.082031 8.601562 13.566406 9.023438 13.984375 C 9.308594 14.265625 9.632812 14.574219 9.992188 14.910156 C 10.359375 15.242188 10.722656 15.566406 11.085938 15.882812 C 11.453125 16.191406 11.777344 16.453125 12.054688 16.664062 C 12.429688 16.9375 12.835938 17.078125 13.269531 17.085938 C 13.703125 17.085938 14.109375 16.894531 14.492188 16.511719 L 15.464844 15.539062 C 15.632812 15.363281 15.808594 15.277344 15.992188 15.277344 C 16.175781 15.277344 16.351562 15.332031 16.523438 15.441406 L 19.730469 17.582031 C 19.902344 17.691406 20.019531 17.816406 20.085938 17.957031 C 20.15625 18.09375 20.195312 18.246094 20.195312 18.40625 C 20.195312 18.738281 20.042969 19.074219 19.742188 19.410156 C 19.714844 19.449219 19.683594 19.484375 19.65625 19.523438 C 19.632812 19.550781 19.605469 19.585938 19.578125 19.621094 C 19.195312 20.054688 18.746094 20.378906 18.230469 20.59375 C 17.722656 20.804688 17.164062 20.914062 16.554688 20.921875 Z M 12.804688 7.257812 C 12.988281 7.257812 13.140625 7.199219 13.257812 7.082031 C 13.382812 6.964844 13.445312 6.820312 13.445312 6.652344 L 13.445312 4.972656 C 13.445312 4.796875 13.382812 4.652344 13.257812 4.53125 C 13.140625 4.40625 12.988281 4.34375 12.804688 4.34375 C 12.636719 4.34375 12.492188 4.40625 12.375 4.53125 C 12.257812 4.652344 12.199219 4.796875 12.199219 4.972656 L 12.199219 6.652344 C 12.199219 6.820312 12.257812 6.964844 12.375 7.082031 C 12.492188 7.199219 12.636719 7.257812 12.804688 7.257812 Z M 15.40625 9.109375 C 15.585938 9.109375 15.730469 9.050781 15.847656 8.933594 C 15.96875 8.816406 16.027344 8.664062 16.027344 8.480469 L 16.027344 3.121094 C 16.027344 2.953125 15.96875 2.808594 15.847656 2.691406 C 15.730469 2.566406 15.585938 2.503906 15.40625 2.503906 C 15.230469 2.503906 15.082031 2.566406 14.957031 2.691406 C 14.839844 2.808594 14.78125 2.953125 14.78125 3.121094 L 14.78125 8.480469 C 14.78125 8.664062 14.839844 8.816406 14.957031 8.933594 C 15.082031 9.050781 15.230469 9.109375 15.40625 9.109375 Z M 17.988281 11.019531 C 18.164062 11.019531 18.3125 10.960938 18.429688 10.84375 C 18.554688 10.722656 18.617188 10.578125 18.617188 10.402344 L 18.617188 1.234375 C 18.617188 1.050781 18.554688 0.902344 18.429688 0.78125 C 18.3125 0.65625 18.164062 0.59375 17.988281 0.59375 C 17.820312 0.59375 17.671875 0.65625 17.546875 0.78125 C 17.429688 0.902344 17.371094 1.050781 17.371094 1.234375 L 17.371094 10.402344 C 17.371094 10.578125 17.429688 10.722656 17.546875 10.84375 C 17.664062 10.960938 17.8125 11.019531 17.988281 11.019531 Z M 20.570312 9.925781 C 20.746094 9.925781 20.894531 9.867188 21.011719 9.75 C 21.136719 9.625 21.199219 9.472656 21.199219 9.296875 L 21.199219 2.304688 C 21.199219 2.136719 21.136719 1.992188 21.011719 1.875 C 20.894531 1.757812 20.746094 1.699219 20.570312 1.699219 C 20.402344 1.699219 20.253906 1.757812 20.128906 1.875 C 20.011719 1.992188 19.953125 2.136719 19.953125 2.304688 L 19.953125 9.296875 C 19.953125 9.472656 20.011719 9.625 20.128906 9.75 C 20.253906 9.867188 20.402344 9.925781 20.570312 9.925781 Z M 23.160156 7.84375 C 23.34375 7.84375 23.496094 7.78125 23.613281 7.664062 C 23.730469 7.546875 23.789062 7.402344 23.789062 7.222656 L 23.789062 4.390625 C 23.789062 4.214844 23.730469 4.066406 23.613281 3.949219 C 23.496094 3.832031 23.34375 3.773438 23.160156 3.773438 C 22.992188 3.773438 22.84375 3.835938 22.71875 3.960938 C 22.601562 4.078125 22.542969 4.21875 22.542969 4.390625 L 22.542969 7.222656 C 22.542969 7.394531 22.601562 7.539062 22.71875 7.664062 C 22.84375 7.78125 22.992188 7.84375 23.160156 7.84375 Z M 23.160156 7.84375 "/>
</g>
</svg>

<svg xmlns="http://www.w3.org/2000/svg" width="24" height="24"><path style="stroke:none;fill-rule:nonzero;fill:#fff;fill-opacity:1" d="M16.543 22.621c.965 0 1.785-.14 2.46-.418.677-.273 1.294-.726 1.852-1.36a.824.824 0 0 0 .122-.14l.132-.133c.332-.367.575-.73.73-1.093.161-.368.243-.723.243-1.07 0-.395-.117-.778-.355-1.145-.235-.375-.598-.73-1.09-1.07l-3.211-2.227a2.785 2.785 0 0 0-1.567-.52c-.543-.008-1.046.215-1.511.672l-.848.852c-.125.125-.246.191-.363.207-.11.015-.23-.02-.364-.098a10.422 10.422 0 0 1-.75-.562c-.304-.25-.617-.524-.949-.817-.332-.3-.633-.59-.906-.86-.285-.288-.566-.577-.836-.87-.254-.274-.5-.559-.738-.852a7.74 7.74 0 0 1-.555-.773.557.557 0 0 1-.086-.352c.016-.117.082-.238.207-.363L9 8.78c.465-.465.691-.969.684-1.511a2.785 2.785 0 0 0-.52-1.567l-2.238-3.21C6.59 2 6.234 1.64 5.867 1.41a2.182 2.182 0 0 0-1.148-.363c-.703-.016-1.426.308-2.16.973-.051.042-.098.085-.145.132l-.14.11c-.626.558-1.079 1.175-1.36 1.851-.27.676-.406 1.492-.406 2.45 0 1.05.21 2.164.629 3.343.425 1.176 1.047 2.375 1.863 3.606.824 1.218 1.828 2.422 3.012 3.605 1.176 1.176 2.375 2.172 3.593 2.988 1.223.825 2.422 1.45 3.598 1.875 1.176.426 2.29.641 3.34.641Zm.012-1.7c-.942.024-1.95-.183-3.024-.616a16.88 16.88 0 0 1-3.219-1.774 22.87 22.87 0 0 1-3.03-2.562 23.88 23.88 0 0 1-2.606-3.074c-.77-1.106-1.383-2.2-1.832-3.29-.446-1.093-.664-2.109-.649-3.043.016-.609.13-1.167.34-1.675.215-.516.54-.961.973-1.336.031-.031.062-.059.097-.086l.114-.09c.16-.14.324-.246.496-.32.176-.082.34-.121.496-.121.351 0 .629.152.824.453l2.14 3.207c.118.18.173.36.169.543 0 .183-.086.36-.254.527l-.973.973c-.383.375-.574.781-.574 1.222 0 .434.14.836.422 1.204.316.425.715.914 1.2 1.468.487.551.937 1.035 1.358 1.453.286.282.61.59.97.926.366.332.73.656 1.093.973.367.308.691.57.969.781a2.08 2.08 0 0 0 1.215.422c.433 0 .84-.191 1.222-.574l.973-.973c.168-.176.344-.262.527-.262.184 0 .36.055.531.164l3.207 2.141c.172.11.29.234.356.375.07.137.11.29.11.45 0 .331-.153.667-.454 1.003-.027.04-.058.074-.086.113l-.078.098a3.63 3.63 0 0 1-1.348.973 4.477 4.477 0 0 1-1.675.328Zm-3.75-13.663a.615.615 0 0 0 .453-.176.563.563 0 0 0 .187-.43v-1.68a.588.588 0 0 0-.187-.44.599.599 0 0 0-.453-.188.563.563 0 0 0-.43.187.604.604 0 0 0-.176.442v1.68c0 .167.059.312.176.429.113.117.27.18.43.176Zm2.601 1.851a.61.61 0 0 0 .45-.18.597.597 0 0 0 .171-.449V3.121a.57.57 0 0 0-.18-.43.574.574 0 0 0-.44-.187.61.61 0 0 0-.45.187.578.578 0 0 0-.176.43v5.36c0 .183.059.335.176.453.121.117.281.18.45.175Zm2.582 1.91a.604.604 0 0 0 .442-.175.588.588 0 0 0 .187-.442V1.234a.599.599 0 0 0-.187-.453.574.574 0 0 0-.442-.187.606.606 0 0 0-.441.191.622.622 0 0 0-.176.45v9.167a.604.604 0 0 0 .617.618Zm2.582-1.093a.61.61 0 0 0 .446-.18.613.613 0 0 0 .183-.45V2.306a.563.563 0 0 0-.187-.43.604.604 0 0 0-.442-.176.637.637 0 0 0-.441.176.593.593 0 0 0-.176.43v6.992a.63.63 0 0 0 .176.453.637.637 0 0 0 .441.176Zm2.59-2.082a.604.604 0 0 0 .629-.621V4.39a.594.594 0 0 0-.629-.617.588.588 0 0 0-.441.187.572.572 0 0 0-.176.43v2.832a.62.62 0 0 0 .176.441.64.64 0 0 0 .441.18Zm0 0"/></svg>
